content/en/docs/ops/deployment/deployment-models/iso-ns.svg

<svg xmlns="http://www.w3.org/2000/svg" viewBox="0 0 690.27 523.1"><defs><style>.a5c05065-179d-4cfe-981e-88b9882adbf2,.af22141f-5291-48a4-937a-b2e1293ca7aa,.e80799c2-e6da-49b8-8c5a-e74dd4c744f6,.f0c340af-565a-4233-8ea3-ec730fc5e90a,.f32300a1-5ee5-4e77-b1a7-9d29eaafb906{fill:none}.a5c05065-179d-4cfe-981e-88b9882adbf2,.e80799c2-e6da-49b8-8c5a-e74dd4c744f6,.f32300a1-5ee5-4e77-b1a7-9d29eaafb906{stroke-linejoin:round}.b448a197-d280-47d8-844f-7b2cc7fb1256,.e4800bec-7b8d-4d31-9bb5-9fa7eec2daa3{font-family:Roboto-Regular,Roboto}.b448a197-d280-47d8-844f-7b2cc7fb1256{font-size:14.59px}.bf037230-fb31-4c1d-92f3-7bc62b3a3185{letter-spacing:-.03em}.b3d303e0-8bf7-48a3-bb37-414885f73df7{letter-spacing:-.04em}.e80799c2-e6da-49b8-8c5a-e74dd4c744f6,.f32300a1-5ee5-4e77-b1a7-9d29eaafb906{stroke:#e905ee}.a5c05065-179d-4cfe-981e-88b9882adbf2,.af22141f-5291-48a4-937a-b2e1293ca7aa,.e80799c2-e6da-49b8-8c5a-e74dd4c744f6{stroke-width:2px}.b5a9e48a-d372-437b-933e-39e70112fbf2{fill:#e6e6e6}.b79f9c07-0de3-4638-b4f8-c37e31fa1d36{fill:#fff}.f32300a1-5ee5-4e77-b1a7-9d29eaafb906{stroke-width:3px}.e4800bec-7b8d-4d31-9bb5-9fa7eec2daa3{font-size:17.02px}.b1339a2f-eba1-4185-804f-eb980ddc3cfb{letter-spacing:.01em}.b5fd6468-888b-4963-8124-747327b8de86{fill:#757575}.a5c05065-179d-4cfe-981e-88b9882adbf2,.af22141f-5291-48a4-937a-b2e1293ca7aa{stroke:#fff}.af22141f-5291-48a4-937a-b2e1293ca7aa{stroke-linecap:round;stroke-miterlimit:10}.f0c340af-565a-4233-8ea3-ec730fc5e90a{stroke-miterlimit:10;stroke:#090;stroke-width:4px}.bc36a7d6-cdc4-422c-8457-acdfaad42354{fill:#090}</style></defs><g id="f114e82d-a97d-495b-a2c7-285c364c1157" data-name="iso-ns"><rect x=".5" y="13.7" width="689.27" height="508.9" rx="10" stroke-linejoin="round" stroke="#466bb0" stroke-dasharray="10 10" fill="none"/><text transform="translate(.48 10.27)" font-family="Roboto-Regular,Roboto" font-size="12">Istio Mesh</text><text class="b448a197-d280-47d8-844f-7b2cc7fb1256" transform="translate(17.07 65.71)">Namespace:<tspan class="bf037230-fb31-4c1d-92f3-7bc62b3a3185" x="81.37" y="0"> </tspan><tspan class="b3d303e0-8bf7-48a3-bb37-414885f73df7" x="84.57" y="0">T</tspan><tspan x="92.63" y="0">eam-1</tspan></text><rect class="e80799c2-e6da-49b8-8c5a-e74dd4c744f6" x="17.15" y="69.37" width="301.12" height="399.99" rx="10"/><text class="b448a197-d280-47d8-844f-7b2cc7fb1256" transform="translate(371.98 65.71)">Namespace:<tspan class="bf037230-fb31-4c1d-92f3-7bc62b3a3185" x="81.37" y="0"> </tspan><tspan class="b3d303e0-8bf7-48a3-bb37-414885f73df7" x="84.57" y="0">T</tspan><tspan x="92.63" y="0">eam-2</tspan></text><rect class="e80799c2-e6da-49b8-8c5a-e74dd4c744f6" x="372.07" y="69.37" width="301.12" height="399.99" rx="10"/><rect class="b5a9e48a-d372-437b-933e-39e70112fbf2" x="402.47" y="118.27" width="240.23" height="87.51" rx="3"/><rect class="b79f9c07-0de3-4638-b4f8-c37e31fa1d36" x="412.98" y="129.21" width="65.63" height="65.63" rx="3"/><path class="f32300a1-5ee5-4e77-b1a7-9d29eaafb906" d="M461.91 171.32v-18.6l-16.12-9.29-16.11 9.29v18.6l16.11 9.3 16.12-9.3z"/><rect class="b79f9c07-0de3-4638-b4f8-c37e31fa1d36" x="489.55" y="129.21" width="142.21" height="65.63" rx="3"/><text class="e4800bec-7b8d-4d31-9bb5-9fa7eec2daa3" transform="translate(553.31 167.91)">Se<tspan class="b1339a2f-eba1-4185-804f-eb980ddc3cfb" x="19.11" y="0">r</tspan><tspan x="25.02" y="0">vice C</tspan></text><circle class="b5fd6468-888b-4963-8124-747327b8de86" cx="522.37" cy="162.02" r="21.88"/><path class="a5c05065-179d-4cfe-981e-88b9882adbf2" d="M514.59 154.11h15.55v15.55h-15.55z"/><path class="af22141f-5291-48a4-937a-b2e1293ca7aa" d="M517.47 154.11v-3.75m4.9 3.75v-3.75m4.89 3.75v-3.75m-9.79 23.32v-3.74m4.9 3.74v-3.74m4.89 3.74v-3.74m-12.81-3.02h-3.74m3.74-4.9h-3.74m3.74-4.89h-3.74m23.32 9.79h-3.75m3.75-4.9h-3.75m3.75-4.89h-3.75"/><rect class="b79f9c07-0de3-4638-b4f8-c37e31fa1d36" x="518.91" y="158.42" width="6.91" height="6.91" rx="2"/><rect class="b5a9e48a-d372-437b-933e-39e70112fbf2" x="47.55" y="118.27" width="240.23" height="87.51" rx="3"/><rect class="b79f9c07-0de3-4638-b4f8-c37e31fa1d36" x="58.06" y="129.21" width="142.21" height="65.63" rx="3"/><text class="e4800bec-7b8d-4d31-9bb5-9fa7eec2daa3" transform="translate(121.81 167.91)">Se<tspan class="b1339a2f-eba1-4185-804f-eb980ddc3cfb" x="19.11" y="0">r</tspan><tspan x="25.02" y="0">vice A</tspan></text><circle class="b5fd6468-888b-4963-8124-747327b8de86" cx="90.88" cy="162.02" r="21.88"/><path class="a5c05065-179d-4cfe-981e-88b9882adbf2" d="M83.11 154.11h15.55v15.55H83.11z"/><path class="af22141f-5291-48a4-937a-b2e1293ca7aa" d="M85.99 154.11v-3.75m4.89 3.75v-3.75m4.89 3.75v-3.75m-9.78 23.32v-3.74m4.89 3.74v-3.74m4.89 3.74v-3.74m-12.81-3.02h-3.74m3.74-4.9h-3.74m3.74-4.89h-3.74m23.32 9.79H98.8m3.74-4.9H98.8m3.74-4.89H98.8"/><rect class="b79f9c07-0de3-4638-b4f8-c37e31fa1d36" x="87.43" y="158.42" width="6.91" height="6.91" rx="2"/><rect class="b79f9c07-0de3-4638-b4f8-c37e31fa1d36" x="211.21" y="129.21" width="65.63" height="65.63" rx="3"/><path class="f32300a1-5ee5-4e77-b1a7-9d29eaafb906" d="M260.14 171.32v-18.6l-16.11-9.29-16.12 9.29v18.6l16.12 9.3 16.11-9.3z"/><rect class="b5a9e48a-d372-437b-933e-39e70112fbf2" x="402.47" y="320.03" width="240.23" height="87.51" rx="3"/><rect class="b79f9c07-0de3-4638-b4f8-c37e31fa1d36" x="412.98" y="330.97" width="65.63" height="65.63" rx="3"/><path class="f32300a1-5ee5-4e77-b1a7-9d29eaafb906" d="M461.91 373.09v-18.6l-16.12-9.3-16.11 9.3v18.6l16.11 9.29 16.12-9.29z"/><rect class="b79f9c07-0de3-4638-b4f8-c37e31fa1d36" x="489.55" y="330.97" width="142.21" height="65.63" rx="3"/><text class="e4800bec-7b8d-4d31-9bb5-9fa7eec2daa3" transform="translate(553.27 369.67)">Se<tspan class="b1339a2f-eba1-4185-804f-eb980ddc3cfb" x="19.11" y="0">r</tspan><tspan x="25.02" y="0">vice D</tspan></text><circle class="b5fd6468-888b-4963-8124-747327b8de86" cx="522.37" cy="363.79" r="21.88"/><path class="a5c05065-179d-4cfe-981e-88b9882adbf2" d="M514.59 355.87h15.55v15.55h-15.55z"/><path class="af22141f-5291-48a4-937a-b2e1293ca7aa" d="M517.47 355.87v-3.74m4.9 3.74v-3.74m4.89 3.74v-3.74m-9.79 23.32v-3.75m4.9 3.75v-3.75m4.89 3.75v-3.75m-12.81-3.02h-3.74m3.74-4.89h-3.74m3.74-4.9h-3.74m23.32 9.79h-3.75m3.75-4.89h-3.75m3.75-4.9h-3.75"/><rect class="b79f9c07-0de3-4638-b4f8-c37e31fa1d36" x="518.91" y="360.19" width="6.91" height="6.91" rx="2"/><rect class="b5a9e48a-d372-437b-933e-39e70112fbf2" x="47.55" y="320.03" width="240.23" height="87.51" rx="3"/><rect class="b79f9c07-0de3-4638-b4f8-c37e31fa1d36" x="58.06" y="330.97" width="142.21" height="65.63" rx="3"/><text class="e4800bec-7b8d-4d31-9bb5-9fa7eec2daa3" transform="translate(122.06 369.67)">Se<tspan class="b1339a2f-eba1-4185-804f-eb980ddc3cfb" x="19.11" y="0">r</tspan><tspan x="25.02" y="0">vice B</tspan></text><circle class="b5fd6468-888b-4963-8124-747327b8de86" cx="90.88" cy="363.79" r="21.88"/><path class="a5c05065-179d-4cfe-981e-88b9882adbf2" d="M83.11 355.87h15.55v15.55H83.11z"/><path class="af22141f-5291-48a4-937a-b2e1293ca7aa" d="M85.99 355.87v-3.74m4.89 3.74v-3.74m4.89 3.74v-3.74m-9.78 23.32v-3.75m4.89 3.75v-3.75m4.89 3.75v-3.75m-12.81-3.02h-3.74m3.74-4.89h-3.74m3.74-4.9h-3.74m23.32 9.79H98.8m3.74-4.89H98.8m3.74-4.9H98.8"/><rect class="b79f9c07-0de3-4638-b4f8-c37e31fa1d36" x="87.43" y="360.19" width="6.91" height="6.91" rx="2"/><rect class="b79f9c07-0de3-4638-b4f8-c37e31fa1d36" x="211.21" y="330.97" width="65.63" height="65.63" rx="3"/><path class="f32300a1-5ee5-4e77-b1a7-9d29eaafb906" d="M260.14 373.09v-18.6l-16.11-9.3-16.12 9.3v18.6l16.12 9.29 16.11-9.29z"/><path class="f0c340af-565a-4233-8ea3-ec730fc5e90a" d="M244.03 202.02v121.77"/><path class="bc36a7d6-cdc4-422c-8457-acdfaad42354" d="M239.04 203.48l4.99-8.64 4.98 8.64h-9.97zm0 118.86l4.99 8.63 4.98-8.63h-9.97z"/><path class="f0c340af-565a-4233-8ea3-ec730fc5e90a" d="M445.79 202.02v121.77"/><path class="bc36a7d6-cdc4-422c-8457-acdfaad42354" d="M440.81 203.48l4.98-8.64 4.99 8.64h-9.97zm0 118.86l4.98 8.63 4.99-8.63h-9.97z"/></g></svg>

<svg xmlns="http://www.w3.org/2000/svg" viewBox="0 0 690.27 523.1"><defs><style>.a5c05065-179d-4cfe-981e-88b9882adbf2,.af22141f-5291-48a4-937a-b2e1293ca7aa,.e80799c2-e6da-49b8-8c5a-e74dd4c744f6,.f0c340af-565a-4233-8ea3-ec730fc5e90a,.f32300a1-5ee5-4e77-b1a7-9d29eaafb906{fill:none}.a5c05065-179d-4cfe-981e-88b9882adbf2,.e80799c2-e6da-49b8-8c5a-e74dd4c744f6,.f32300a1-5ee5-4e77-b1a7-9d29eaafb906{stroke-linejoin:round}.b448a197-d280-47d8-844f-7b2cc7fb1256,.e4800bec-7b8d-4d31-9bb5-9fa7eec2daa3{font-family:Roboto-Regular,Roboto}.b448a197-d280-47d8-844f-7b2cc7fb1256{font-size:14.59px}.bf037230-fb31-4c1d-92f3-7bc62b3a3185{letter-spacing:-.03em}.b3d303e0-8bf7-48a3-bb37-414885f73df7{letter-spacing:-.04em}.e80799c2-e6da-49b8-8c5a-e74dd4c744f6,.f32300a1-5ee5-4e77-b1a7-9d29eaafb906{stroke:#e905ee}.a5c05065-179d-4cfe-981e-88b9882adbf2,.af22141f-5291-48a4-937a-b2e1293ca7aa,.e80799c2-e6da-49b8-8c5a-e74dd4c744f6{stroke-width:2px}.b5a9e48a-d372-437b-933e-39e70112fbf2{fill:#e6e6e6}.b79f9c07-0de3-4638-b4f8-c37e31fa1d36{fill:#fff}.f32300a1-5ee5-4e77-b1a7-9d29eaafb906{stroke-width:3px}.e4800bec-7b8d-4d31-9bb5-9fa7eec2daa3{font-size:17.02px}.b1339a2f-eba1-4185-804f-eb980ddc3cfb{letter-spacing:.01em}.b5fd6468-888b-4963-8124-747327b8de86{fill:#757575}.a5c05065-179d-4cfe-981e-88b9882adbf2,.af22141f-5291-48a4-937a-b2e1293ca7aa{stroke:#fff}.af22141f-5291-48a4-937a-b2e1293ca7aa{stroke-linecap:round;stroke-miterlimit:10}.f0c340af-565a-4233-8ea3-ec730fc5e90a{stroke-miterlimit:10;stroke:#090;stroke-width:4px}.bc36a7d6-cdc4-422c-8457-acdfaad42354{fill:#090}</style></defs><g id="f114e82d-a97d-495b-a2c7-285c364c1157" data-name="iso-ns"><rect x=".5" y="13.7" width="689.27" height="508.9" rx="10" stroke-linejoin="round" stroke="#466bb0" stroke-dasharray="10 10" fill="none"/><text transform="translate(.48 10.27)" font-family="Roboto-Regular,Roboto" font-size="12">Istio Mesh</text><text class="b448a197-d280-47d8-844f-7b2cc7fb1256" transform="translate(17.07 65.71)">Namespace:<tspan class="bf037230-fb31-4c1d-92f3-7bc62b3a3185" x="81.37" y="0"> </tspan><tspan class="b3d303e0-8bf7-48a3-bb37-414885f73df7" x="84.57" y="0">T</tspan><tspan x="92.63" y="0">eam-1</tspan></text><rect class="e80799c2-e6da-49b8-8c5a-e74dd4c744f6" x="17.15" y="69.37" width="301.12" height="399.99" rx="10"/><text class="b448a197-d280-47d8-844f-7b2cc7fb1256" transform="translate(371.98 65.71)">Namespace:<tspan class="bf037230-fb31-4c1d-92f3-7bc62b3a3185" x="81.37" y="0"> </tspan><tspan class="b3d303e0-8bf7-48a3-bb37-414885f73df7" x="84.57" y="0">T</tspan><tspan x="92.63" y="0">eam-2</tspan></text><rect class="e80799c2-e6da-49b8-8c5a-e74dd4c744f6" x="372.07" y="69.37" width="301.12" height="399.99" rx="10"/><rect class="b5a9e48a-d372-437b-933e-39e70112fbf2" x="402.47" y="118.27" width="240.23" height="87.51" rx="3"/><rect class="b79f9c07-0de3-4638-b4f8-c37e31fa1d36" x="412.98" y="129.21" width="65.63" height="65.63" rx="3"/><path class="f32300a1-5ee5-4e77-b1a7-9d29eaafb906" d="M461.91 171.32v-18.6l-16.12-9.29-16.11 9.29v18.6l16.11 9.3 16.12-9.3z"/><rect class="b79f9c07-0de3-4638-b4f8-c37e31fa1d36" x="489.55" y="129.21" width="142.21" height="65.63" rx="3"/><text class="e4800bec-7b8d-4d31-9bb5-9fa7eec2daa3" transform="translate(553.31 167.91)">Se<tspan class="b1339a2f-eba1-4185-804f-eb980ddc3cfb" x="19.11" y="0">r</tspan><tspan x="25.02" y="0">vice C</tspan></text><circle class="b5fd6468-888b-4963-8124-747327b8de86" cx="522.37" cy="162.02" r="21.88"/><path class="a5c05065-179d-4cfe-981e-88b9882adbf2" d="M514.59 154.11h15.55v15.55h-15.55z"/><path class="af22141f-5291-48a4-937a-b2e1293ca7aa" d="M517.47 154.11v-3.75M522.37 154.11v-3.75M527.26 154.11v-3.75M517.47 173.68v-3.74M522.37 173.68v-3.74M527.26 173.68v-3.74M514.45 166.92h-3.74M514.45 162.02h-3.74M514.45 157.13h-3.74M534.03 166.92h-3.75M534.03 162.02h-3.75M534.03 157.13h-3.75"/><rect class="b79f9c07-0de3-4638-b4f8-c37e31fa1d36" x="518.91" y="158.42" width="6.91" height="6.91" rx="2"/><rect class="b5a9e48a-d372-437b-933e-39e70112fbf2" x="47.55" y="118.27" width="240.23" height="87.51" rx="3"/><rect class="b79f9c07-0de3-4638-b4f8-c37e31fa1d36" x="58.06" y="129.21" width="142.21" height="65.63" rx="3"/><text class="e4800bec-7b8d-4d31-9bb5-9fa7eec2daa3" transform="translate(121.81 167.91)">Se<tspan class="b1339a2f-eba1-4185-804f-eb980ddc3cfb" x="19.11" y="0">r</tspan><tspan x="25.02" y="0">vice A</tspan></text><circle class="b5fd6468-888b-4963-8124-747327b8de86" cx="90.88" cy="162.02" r="21.88"/><path class="a5c05065-179d-4cfe-981e-88b9882adbf2" d="M83.11 154.11h15.55v15.55H83.11z"/><path class="af22141f-5291-48a4-937a-b2e1293ca7aa" d="M85.99 154.11v-3.75M90.88 154.11v-3.75M95.77 154.11v-3.75M85.99 173.68v-3.74M90.88 173.68v-3.74M95.77 173.68v-3.74M82.96 166.92h-3.74M82.96 162.02h-3.74M82.96 157.13h-3.74M102.54 166.92H98.8M102.54 162.02H98.8M102.54 157.13H98.8"/><rect class="b79f9c07-0de3-4638-b4f8-c37e31fa1d36" x="87.43" y="158.42" width="6.91" height="6.91" rx="2"/><rect class="b79f9c07-0de3-4638-b4f8-c37e31fa1d36" x="211.21" y="129.21" width="65.63" height="65.63" rx="3"/><path class="f32300a1-5ee5-4e77-b1a7-9d29eaafb906" d="M260.14 171.32v-18.6l-16.11-9.29-16.12 9.29v18.6l16.12 9.3 16.11-9.3z"/><rect class="b5a9e48a-d372-437b-933e-39e70112fbf2" x="402.47" y="320.03" width="240.23" height="87.51" rx="3"/><rect class="b79f9c07-0de3-4638-b4f8-c37e31fa1d36" x="412.98" y="330.97" width="65.63" height="65.63" rx="3"/><path class="f32300a1-5ee5-4e77-b1a7-9d29eaafb906" d="M461.91 373.09v-18.6l-16.12-9.3-16.11 9.3v18.6l16.11 9.29 16.12-9.29z"/><rect class="b79f9c07-0de3-4638-b4f8-c37e31fa1d36" x="489.55" y="330.97" width="142.21" height="65.63" rx="3"/><text class="e4800bec-7b8d-4d31-9bb5-9fa7eec2daa3" transform="translate(553.27 369.67)">Se<tspan class="b1339a2f-eba1-4185-804f-eb980ddc3cfb" x="19.11" y="0">r</tspan><tspan x="25.02" y="0">vice D</tspan></text><circle class="b5fd6468-888b-4963-8124-747327b8de86" cx="522.37" cy="363.79" r="21.88"/><path class="a5c05065-179d-4cfe-981e-88b9882adbf2" d="M514.59 355.87h15.55v15.55h-15.55z"/><path class="af22141f-5291-48a4-937a-b2e1293ca7aa" d="M517.47 355.87v-3.74M522.37 355.87v-3.74M527.26 355.87v-3.74M517.47 375.45v-3.75M522.37 375.45v-3.75M527.26 375.45v-3.75M514.45 368.68h-3.74M514.45 363.79h-3.74M514.45 358.89h-3.74M534.03 368.68h-3.75M534.03 363.79h-3.75M534.03 358.89h-3.75"/><rect class="b79f9c07-0de3-4638-b4f8-c37e31fa1d36" x="518.91" y="360.19" width="6.91" height="6.91" rx="2"/><rect class="b5a9e48a-d372-437b-933e-39e70112fbf2" x="47.55" y="320.03" width="240.23" height="87.51" rx="3"/><rect class="b79f9c07-0de3-4638-b4f8-c37e31fa1d36" x="58.06" y="330.97" width="142.21" height="65.63" rx="3"/><text class="e4800bec-7b8d-4d31-9bb5-9fa7eec2daa3" transform="translate(122.06 369.67)">Se<tspan class="b1339a2f-eba1-4185-804f-eb980ddc3cfb" x="19.11" y="0">r</tspan><tspan x="25.02" y="0">vice B</tspan></text><circle class="b5fd6468-888b-4963-8124-747327b8de86" cx="90.88" cy="363.79" r="21.88"/><path class="a5c05065-179d-4cfe-981e-88b9882adbf2" d="M83.11 355.87h15.55v15.55H83.11z"/><path class="af22141f-5291-48a4-937a-b2e1293ca7aa" d="M85.99 355.87v-3.74M90.88 355.87v-3.74M95.77 355.87v-3.74M85.99 375.45v-3.75M90.88 375.45v-3.75M95.77 375.45v-3.75M82.96 368.68h-3.74M82.96 363.79h-3.74M82.96 358.89h-3.74M102.54 368.68H98.8M102.54 363.79H98.8M102.54 358.89H98.8"/><rect class="b79f9c07-0de3-4638-b4f8-c37e31fa1d36" x="87.43" y="360.19" width="6.91" height="6.91" rx="2"/><rect class="b79f9c07-0de3-4638-b4f8-c37e31fa1d36" x="211.21" y="330.97" width="65.63" height="65.63" rx="3"/><path class="f32300a1-5ee5-4e77-b1a7-9d29eaafb906" d="M260.14 373.09v-18.6l-16.11-9.3-16.12 9.3v18.6l16.12 9.29 16.11-9.29z"/><path class="f0c340af-565a-4233-8ea3-ec730fc5e90a" d="M244.03 202.02v121.77"/><path class="bc36a7d6-cdc4-422c-8457-acdfaad42354" d="M239.04 203.48l4.99-8.64 4.98 8.64h-9.97zM239.04 322.34l4.99 8.63 4.98-8.63h-9.97z"/><path class="f0c340af-565a-4233-8ea3-ec730fc5e90a" d="M445.79 202.02v121.77"/><path class="bc36a7d6-cdc4-422c-8457-acdfaad42354" d="M440.81 203.48l4.98-8.64 4.99 8.64h-9.97zM440.81 322.34l4.98 8.63 4.99-8.63h-9.97z"/></g></svg>
